X: 1
T: Go, Tell it on the Mountain   [C]
Z: 2019 John Chambers <jc:trillian.mit.edu>
S: PDF image from Darlene Wigton
M: 4/4
L: 1/4
K: C
"^Verse"[|] "C"c |\
e g g a | g e2 c | "G"d d c d | "C"e3 c |\
e g g a | "Am"g e2 c | "D"d d c{B} A | ("G"G2 "G7"Hf2) |]
"^Chorus"[|\
"C"e2 e/>d/ c/>A/ | G2 c2 | "G"d/ d d/ c d | "C"e g a g |\
"C"e2 e/>d/ c/>A/ | "Am"G2 c c | "G"d d e d | "C"c3 |]
